X: 610
T: Fair Maid of Kinsale., The
T: an cailin ban ua ceann-saile.
R:waltz
N:"Slow."
B:O'Neill's 610
Z:Transcribed by John Walsh (walsh@math.ubc.ca)
M:3/4
L:1/8
%Q:80
K:G
(DE/F/) GG|B (AG)FG|A2 (Bc)dc|(BAB)c(dc)|A2 (AG/)F/ GG|
B2 (AG)FG|A2 (de)fd|d>c (A/G/F/)A/ GG|G2||
(Bc)dd|f2 (de/f/) gg|f2 dcBB|(B{cB}A) Bcdc|A2 (AG/F/) GG|
B2 (AG)FG|A2 defd|d>c (A/G/F/)A/ GG|G2||


